img/svg/form-label-icons/writing-ico.svg

<svg width="20" height="20" viewBox="0 0 20 20" fill="none" xmlns="http://www.w3.org/2000/svg">
<path d="M13.7679 8.59375C13.7679 8.16227 13.4181 7.8125 12.9866 7.8125H4.93975C4.50826 7.8125 4.1585 8.16227 4.1585 8.59375C4.1585 9.02523 4.50826 9.375 4.93975 9.375H12.9866C13.4181 9.375 13.7679 9.02523 13.7679 8.59375Z" fill="#4C51CC"/>
<path d="M4.93975 10.9375C4.50827 10.9375 4.1585 11.2873 4.1585 11.7188C4.1585 12.1502 4.50827 12.5 4.93975 12.5H9.82691C10.2584 12.5 10.6082 12.1502 10.6082 11.7188C10.6082 11.2873 10.2584 10.9375 9.82691 10.9375H4.93975Z" fill="#4C51CC"/>
<path d="M6.77569 18.4375H4.16284C3.30128 18.4375 2.60034 17.7366 2.60034 16.875V3.125C2.60034 2.26344 3.30128 1.5625 4.16284 1.5625H13.7679C14.6294 1.5625 15.3304 2.26344 15.3304 3.125V7.92969C15.3304 8.36117 15.6801 8.71094 16.1116 8.71094C16.5431 8.71094 16.8929 8.36117 16.8929 7.92969V3.125C16.8929 1.40188 15.491 0 13.7679 0H4.16284C2.43972 0 1.03784 1.40188 1.03784 3.125V16.875C1.03784 18.5981 2.43972 20 4.16284 20H6.77569C7.20718 20 7.55694 19.6502 7.55694 19.2188C7.55694 18.7873 7.20718 18.4375 6.77569 18.4375Z" fill="#4C51CC"/>
<path d="M18.2767 11.3113C17.3628 10.3975 15.876 10.3975 14.9627 11.3107L10.6735 15.5904C10.5825 15.6813 10.5153 15.7932 10.4778 15.9164L9.54374 18.9916C9.46093 19.2642 9.53308 19.5603 9.73206 19.7642C9.88112 19.917 10.0836 19.9999 10.2913 19.9999C10.3608 19.9999 10.431 19.9906 10.4998 19.9715L13.6532 19.098C13.7829 19.0621 13.9012 18.9932 13.9965 18.8981L18.2767 14.6259C19.1905 13.7121 19.1905 12.2252 18.2767 11.3113ZM13.0381 17.6471L11.4517 18.0866L11.9159 16.5581L14.81 13.6704L15.9151 14.7755L13.0381 17.6471ZM17.1724 13.5206L17.021 13.6717L15.9162 12.5668L16.067 12.4163C16.3716 12.1117 16.8673 12.1117 17.1719 12.4163C17.4765 12.7209 17.4765 13.2165 17.1724 13.5206Z" fill="#4C51CC"/>
<path d="M12.9866 4.6875H4.93975C4.50826 4.6875 4.1585 5.03727 4.1585 5.46875C4.1585 5.90023 4.50826 6.25 4.93975 6.25H12.9866C13.4181 6.25 13.7679 5.90023 13.7679 5.46875C13.7679 5.03727 13.4181 4.6875 12.9866 4.6875Z" fill="#4C51CC"/>
</svg>

<svg width="20" height="20" fill="none" xmlns="http://www.w3.org/2000/svg"><path d="M13.768 8.594a.781.781 0 00-.781-.781H4.94a.781.781 0 100 1.562h8.047a.78.78 0 00.78-.781zM4.94 10.938a.781.781 0 000 1.562h4.887a.781.781 0 100-1.563H4.94z" fill="#4C51CC"/><path d="M6.776 18.438H4.163A1.565 1.565 0 012.6 16.875V3.125c0-.862.701-1.563 1.563-1.563h9.605c.861 0 1.562.701 1.562 1.563V7.93a.781.781 0 101.563 0V3.125A3.129 3.129 0 0013.768 0H4.163a3.129 3.129 0 00-3.125 3.125v13.75A3.129 3.129 0 004.163 20h2.613a.781.781 0 100-1.563z" fill="#4C51CC"/><path d="M18.277 11.311a2.346 2.346 0 00-3.314 0l-4.29 4.28a.783.783 0 00-.195.325l-.934 3.076a.781.781 0 00.956.98l3.153-.874a.781.781 0 00.343-.2l4.28-4.272c.915-.914.915-2.4 0-3.315zm-5.239 6.336l-1.586.44.464-1.529 2.894-2.888 1.105 1.105-2.877 2.872zm4.134-4.126l-.151.15-1.105-1.104.151-.15a.782.782 0 011.105 1.104zm-4.185-8.833H4.94a.781.781 0 100 1.562h8.047a.781.781 0 100-1.563z" fill="#4C51CC"/></svg>
